X:32
T:Jimmy Doyle's
R:Slide
S:Con 'Fada' Driscoll, Cork (fiddle)
D:From RTE 'The Pure Drop'
M:6/8
Z:Bernie Stocks
K:G
|: d3 dcB | d2c A2B | c2c cBA | BdB G2B | d3 dcB | 
d2c A2g | faf gfe | d2B G2B :: eAA BAA | BdB ABd | eAA BAA | 
BdB GBd | eAA BAA | BdB A2g | faf gfe | d2B G2B :|
<end>
<start>
